static/img/kroki/06f6bd158081c9004ef9cb7769e52ad0.svg

<?xml version="1.0" encoding="us-ascii" standalone="no"?><svg xmlns="http://www.w3.org/2000/svg" xmlns:xlink="http://www.w3.org/1999/xlink" contentStyleType="text/css" height="484px" preserveAspectRatio="none" style="width:464px;height:484px;" version="1.1" viewBox="0 0 464 484" width="464px" zoomAndPan="magnify"><defs/><g><!--class resource--><g id="elem_resource"><rect codeLine="22" fill="#3D176E" height="310.7578" id="resource" rx="2.5" ry="2.5" style="stroke:#000D19;stroke-width:0.5;" width="227" x="7" y="7"/><ellipse cx="75.75" cy="26.8945" fill="#ADD1B2" rx="11" ry="11" style="stroke:#181818;stroke-width:1.0;"/><path d="M78.7188,32.5352 Q78.1406,32.832 77.5,32.9727 Q76.8594,33.1289 76.1563,33.1289 Q73.6563,33.1289 72.3281,31.4883 Q71.0156,29.832 71.0156,26.707 Q71.0156,23.582 72.3281,21.9258 Q73.6563,20.2695 76.1563,20.2695 Q76.8594,20.2695 77.5,20.4258 Q78.1563,20.582 78.7188,20.8789 L78.7188,23.5977 Q78.0938,23.0195 77.5,22.7539 Q76.9063,22.4727 76.2813,22.4727 Q74.9375,22.4727 74.25,23.5508 Q73.5625,24.6133 73.5625,26.707 Q73.5625,28.8008 74.25,29.8789 Q74.9375,30.9414 76.2813,30.9414 Q76.9063,30.9414 77.5,30.6758 Q78.0938,30.3945 78.7188,29.8164 L78.7188,32.5352 Z " fill="#000000"/><text fill="#D9B8FF" font-family="Helvetica" font-size="17" lengthAdjust="spacing" textLength="71" x="101.25" y="32.7798">resource</text><line style="stroke:#000D19;stroke-width:0.5;" x1="8" x2="233" y1="46.7891" y2="46.7891"/><text fill="#D9B8FF" font-family="sans-serif" font-size="14" font-weight="bold" lengthAdjust="spacing" textLength="29" x="18" y="68.7842">age</text><text fill="#D9B8FF" font-family="sans-serif" font-size="14" lengthAdjust="spacing" textLength="66" x="47" y="68.7842">: duration</text><text fill="#D9B8FF" font-family="sans-serif" font-size="14" font-weight="bold" lengthAdjust="spacing" textLength="43" x="18" y="95.0811">atime</text><text fill="#D9B8FF" font-family="sans-serif" font-size="14" lengthAdjust="spacing" textLength="70" x="61" y="95.0811">: datetime</text><text fill="#D9B8FF" font-family="sans-serif" font-size="14" font-weight="bold" lengthAdjust="spacing" textLength="43" x="18" y="121.3779">ctime</text><text fill="#D9B8FF" font-family="sans-serif" font-size="14" lengthAdjust="spacing" textLength="70" x="61" y="121.3779">: datetime</text><text fill="#D9B8FF" font-family="sans-serif" font-size="14" font-weight="bold" lengthAdjust="spacing" textLength="14" x="18" y="147.6748">id</text><text fill="#D9B8FF" font-family="sans-serif" font-size="14" lengthAdjust="spacing" textLength="48" x="32" y="147.6748">: string</text><text fill="#D9B8FF" font-family="sans-serif" font-size="14" font-weight="bold" lengthAdjust="spacing" textLength="33" x="18" y="173.9717">kind</text><text fill="#D9B8FF" font-family="sans-serif" font-size="14" lengthAdjust="spacing" textLength="48" x="51" y="173.9717">: string</text><text fill="#D9B8FF" font-family="sans-serif" font-size="14" font-weight="bold" lengthAdjust="spacing" textLength="90" x="18" y="200.2686">last_access</text><text fill="#D9B8FF" font-family="sans-serif" font-size="14" lengthAdjust="spacing" textLength="66" x="108" y="200.2686">: duration</text><text fill="#D9B8FF" font-family="sans-serif" font-size="14" font-weight="bold" lengthAdjust="spacing" textLength="90" x="18" y="226.5654">last_update</text><text fill="#D9B8FF" font-family="sans-serif" font-size="14" lengthAdjust="spacing" textLength="66" x="108" y="226.5654">: duration</text><text fill="#D9B8FF" font-family="sans-serif" font-size="14" font-weight="bold" lengthAdjust="spacing" textLength="48" x="18" y="252.8623">mtime</text><text fill="#D9B8FF" font-family="sans-serif" font-size="14" lengthAdjust="spacing" textLength="70" x="66" y="252.8623">: datetime</text><text fill="#D9B8FF" font-family="sans-serif" font-size="14" font-weight="bold" lengthAdjust="spacing" textLength="43" x="18" y="279.1592">name</text><text fill="#D9B8FF" font-family="sans-serif" font-size="14" lengthAdjust="spacing" textLength="48" x="61" y="279.1592">: string</text><text fill="#D9B8FF" font-family="sans-serif" font-size="14" font-weight="bold" lengthAdjust="spacing" textLength="34" x="18" y="305.4561">tags</text><text fill="#D9B8FF" font-family="sans-serif" font-size="14" lengthAdjust="spacing" textLength="171" x="52" y="305.4561">: dictionary[string, string]</text></g><!--class vsphere_resource--><g id="elem_vsphere_resource"><rect codeLine="34" fill="#3D176E" height="39.7891" id="vsphere_resource" rx="2.5" ry="2.5" style="stroke:#000D19;stroke-width:0.5;" width="188" x="269.5" y="142.49"/><ellipse cx="284.5" cy="162.3845" fill="#ADD1B2" rx="11" ry="11" style="stroke:#181818;stroke-width:1.0;"/><path d="M287.4688,168.0252 Q286.8906,168.322 286.25,168.4627 Q285.6094,168.6189 284.9063,168.6189 Q282.4063,168.6189 281.0781,166.9783 Q279.7656,165.322 279.7656,162.197 Q279.7656,159.072 281.0781,157.4158 Q282.4063,155.7595 284.9063,155.7595 Q285.6094,155.7595 286.25,155.9158 Q286.9063,156.072 287.4688,156.3689 L287.4688,159.0877 Q286.8438,158.5095 286.25,158.2439 Q285.6563,157.9627 285.0313,157.9627 Q283.6875,157.9627 283,159.0408 Q282.3125,160.1033 282.3125,162.197 Q282.3125,164.2908 283,165.3689 Q283.6875,166.4314 285.0313,166.4314 Q285.6563,166.4314 286.25,166.1658 Q286.8438,165.8845 287.4688,165.3064 L287.4688,168.0252 Z " fill="#000000"/><text fill="#D9B8FF" font-family="Helvetica" font-size="17" lengthAdjust="spacing" textLength="146" x="303.5" y="168.2698">vsphere_resource</text></g><!--class vsphere_template--><g id="elem_vsphere_template"><rect codeLine="36" fill="#3D176E" height="39.7891" id="vsphere_template" rx="2.5" ry="2.5" style="stroke:#000D19;stroke-width:0.5;" width="193" x="145" y="438.76"/><ellipse cx="160" cy="458.6545" fill="#ADD1B2" rx="11" ry="11" style="stroke:#181818;stroke-width:1.0;"/><path d="M162.9688,464.2952 Q162.3906,464.592 161.75,464.7327 Q161.1094,464.8889 160.4063,464.8889 Q157.9063,464.8889 156.5781,463.2483 Q155.2656,461.592 155.2656,458.467 Q155.2656,455.342 156.5781,453.6858 Q157.9063,452.0295 160.4063,452.0295 Q161.1094,452.0295 161.75,452.1858 Q162.4063,452.342 162.9688,452.6389 L162.9688,455.3577 Q162.3438,454.7795 161.75,454.5139 Q161.1563,454.2327 160.5313,454.2327 Q159.1875,454.2327 158.5,455.3108 Q157.8125,456.3733 157.8125,458.467 Q157.8125,460.5608 158.5,461.6389 Q159.1875,462.7014 160.5313,462.7014 Q161.1563,462.7014 161.75,462.4358 Q162.3438,462.1545 162.9688,461.5764 L162.9688,464.2952 Z " fill="#000000"/><text fill="#D9B8FF" font-family="Helvetica" font-size="17" lengthAdjust="spacing" textLength="151" x="179" y="464.5398">vsphere_template</text></g><!--reverse link resource to vsphere_template--><g id="link_resource_vsphere_template"><path codeLine="38" d="M190.8564,334.4871 C210.7164,382.7771 223.29,413.37 233.7,438.67 " fill="none" id="resource-backto-vsphere_template" style="stroke:#FFAF37;stroke-width:2.0;"/><polygon fill="none" points="184.01,317.84,185.3073,336.7693,196.4054,332.205,184.01,317.84" style="stroke:#FFAF37;stroke-width:2.0;"/></g><!--reverse link vsphere_resource to vsphere_template--><g id="link_vsphere_resource_vsphere_template"><path codeLine="39" d="M348.6053,199.3172 C326.4953,252.6372 271.68,384.87 249.53,438.28 " fill="none" id="vsphere_resource-backto-vsphere_template" style="stroke:#FFAF37;stroke-width:2.0;"/><polygon fill="none" points="355.5,182.69,343.0629,197.0189,354.1477,201.6154,355.5,182.69" style="stroke:#FFAF37;stroke-width:2.0;"/></g><!--SRC=[XPDFQy904CNlVee5Rw62Lbgrz6A5qbwarDvAAUFk95bCTiFiHB5_lditnafCejwIztwPzsRPn5gXm3JZhKWnNIAvZbjfam51AgP4TZEpYINH3KC8XwEw-MWDNmJcaA9umcIDh2NKYRTOovL1vyHrnNe0kOh8vaQLuvd0E6-XuGerIy2vAJFfPSvOAQCcot4OridwqEvG3KQtsC0iAQGzqk_trM1IHov6dTtxG2pq5uf1zT3cbh5Hin6neywsB8XAoSQY__x9ZY-Wb3QHkAbehsKdCaX7-Y86PJS57KBYgZ6EaT3oDiDPOokSZ5KuQeMVJy6oE3b1w6nE4iLt9mWWmY2u4oedO6rDeR1EImqOYsUloHPDgq9m_lQOoB_w7iU2p-9FaDBVpLh2picpObRDILjo39JIOJ13L4xKilWCQFjUUbTxvgFpkrzrxRBOdyfdPUMwnVxtJNpQpZfmzp-zNg_1T1hpsha_]--></g></svg>

<svg xmlns="http://www.w3.org/2000/svg" width="464" height="484" viewBox="0 0 464 484"><rect width="227" height="310.758" x="7" y="7" fill="#3D176E" rx="2.5" ry="2.5" style="stroke:#000d19;stroke-width:.5"/><circle cx="75.75" cy="26.895" r="11" fill="#ADD1B2" style="stroke:#181818;stroke-width:1"/><path d="M78.719 32.535q-.578.297-1.219.438-.64.156-1.344.156-2.5 0-3.828-1.64-1.312-1.657-1.312-4.782t1.312-4.781q1.328-1.656 3.828-1.656.703 0 1.344.156.656.156 1.219.453v2.719q-.625-.578-1.219-.844-.594-.281-1.219-.281-1.344 0-2.031 1.078-.687 1.062-.687 3.156t.687 3.172q.688 1.062 2.031 1.062.625 0 1.219-.265.594-.281 1.219-.86z"/><text x="101.25" y="32.78" fill="#D9B8FF" font-family="Helvetica" font-size="17" textLength="71">resource</text><path d="M8 46.789h225" style="stroke:#000d19;stroke-width:.5"/><text x="18" y="68.784" fill="#D9B8FF" font-family="sans-serif" font-size="14" font-weight="bold" textLength="29">age</text><text x="47" y="68.784" fill="#D9B8FF" font-family="sans-serif" font-size="14" textLength="66">: duration</text><text x="18" y="95.081" fill="#D9B8FF" font-family="sans-serif" font-size="14" font-weight="bold" textLength="43">atime</text><text x="61" y="95.081" fill="#D9B8FF" font-family="sans-serif" font-size="14" textLength="70">: datetime</text><text x="18" y="121.378" fill="#D9B8FF" font-family="sans-serif" font-size="14" font-weight="bold" textLength="43">ctime</text><text x="61" y="121.378" fill="#D9B8FF" font-family="sans-serif" font-size="14" textLength="70">: datetime</text><text x="18" y="147.675" fill="#D9B8FF" font-family="sans-serif" font-size="14" font-weight="bold" textLength="14">id</text><text x="32" y="147.675" fill="#D9B8FF" font-family="sans-serif" font-size="14" textLength="48">: string</text><text x="18" y="173.972" fill="#D9B8FF" font-family="sans-serif" font-size="14" font-weight="bold" textLength="33">kind</text><text x="51" y="173.972" fill="#D9B8FF" font-family="sans-serif" font-size="14" textLength="48">: string</text><text x="18" y="200.269" fill="#D9B8FF" font-family="sans-serif" font-size="14" font-weight="bold" textLength="90">last_access</text><text x="108" y="200.269" fill="#D9B8FF" font-family="sans-serif" font-size="14" textLength="66">: duration</text><text x="18" y="226.565" fill="#D9B8FF" font-family="sans-serif" font-size="14" font-weight="bold" textLength="90">last_update</text><text x="108" y="226.565" fill="#D9B8FF" font-family="sans-serif" font-size="14" textLength="66">: duration</text><text x="18" y="252.862" fill="#D9B8FF" font-family="sans-serif" font-size="14" font-weight="bold" textLength="48">mtime</text><text x="66" y="252.862" fill="#D9B8FF" font-family="sans-serif" font-size="14" textLength="70">: datetime</text><text x="18" y="279.159" fill="#D9B8FF" font-family="sans-serif" font-size="14" font-weight="bold" textLength="43">name</text><text x="61" y="279.159" fill="#D9B8FF" font-family="sans-serif" font-size="14" textLength="48">: string</text><text x="18" y="305.456" fill="#D9B8FF" font-family="sans-serif" font-size="14" font-weight="bold" textLength="34">tags</text><text x="52" y="305.456" fill="#D9B8FF" font-family="sans-serif" font-size="14" textLength="171">: dictionary[string, string]</text><rect width="188" height="39.789" x="269.5" y="142.49" fill="#3D176E" rx="2.5" ry="2.5" style="stroke:#000d19;stroke-width:.5"/><circle cx="284.5" cy="162.385" r="11" fill="#ADD1B2" style="stroke:#181818;stroke-width:1"/><path d="M287.469 168.025q-.578.297-1.219.438-.64.156-1.344.156-2.5 0-3.828-1.64-1.312-1.657-1.312-4.782t1.312-4.781q1.328-1.656 3.828-1.656.703 0 1.344.156.656.156 1.219.453v2.719q-.625-.578-1.219-.844-.594-.281-1.219-.281-1.344 0-2.031 1.078-.687 1.062-.687 3.156t.687 3.172q.688 1.062 2.031 1.062.625 0 1.219-.265.594-.281 1.219-.86z"/><text x="303.5" y="168.27" fill="#D9B8FF" font-family="Helvetica" font-size="17" textLength="146">vsphere_resource</text><rect width="193" height="39.789" x="145" y="438.76" fill="#3D176E" rx="2.5" ry="2.5" style="stroke:#000d19;stroke-width:.5"/><circle cx="160" cy="458.654" r="11" fill="#ADD1B2" style="stroke:#181818;stroke-width:1"/><path d="M162.969 464.295q-.578.297-1.219.438-.64.156-1.344.156-2.5 0-3.828-1.64-1.312-1.657-1.312-4.782t1.312-4.781q1.328-1.656 3.828-1.656.703 0 1.344.156.656.156 1.219.453v2.719q-.625-.579-1.219-.844-.594-.281-1.219-.281-1.344 0-2.031 1.078-.687 1.062-.687 3.156t.687 3.172q.688 1.062 2.031 1.062.625 0 1.219-.265.594-.281 1.219-.86z"/><text x="179" y="464.54" fill="#D9B8FF" font-family="Helvetica" font-size="17" textLength="151">vsphere_template</text><g fill="none"><path d="M190.856 334.487c19.86 48.29 32.434 78.883 42.844 104.183" style="stroke:#ffaf37;stroke-width:2"/><path d="m184.01 317.84 1.297 18.93 11.098-4.565z" style="stroke:#ffaf37;stroke-width:2"/></g><path fill="none" d="M348.605 199.317c-22.11 53.32-76.925 185.553-99.075 238.963M355.5 182.69l-12.437 14.329 11.085 4.596z" style="stroke:#ffaf37;stroke-width:2"/></svg>
